X:1
T:Title
%%score ( 1 2 ) { 3 | 4 }
L:1/8
Q:1/4=108
M:4/4
K:Eb
V:1 treble nm="Grand Piano, Soprano"
V:2 treble 
V:3 bass nm="Choir Pad, Faith (Wesley) S. S. Wesley"
V:4 bass 
V:1
 [EG]3 [EG] [DF]2 E2 | [EA]2 [EA]2 [EG]2 [EB]2 | [Ec]2 [EB]2 [FA]2 [EG]2 | [DF]6 z2 | %4
w: By~Samuel~Sebastian~Wesley,~1872 * * *||||
 [EB]3 [DA] [EG]2 [DF]2 | E2 [B,F]2 [B,G]2 [Dc]2 | [EB]2 E2 [EG]2 [DF]2 | E8 | %8
w: ||||
 [EG]3 [EG] [Ec]2 [F=B]2 | [GB]2 BA [DG]2 [DG]2 | cd [Ge]2 [Fd]2 c-[Fc] | [Gc]2 [G=B]2 [Gc]4 | %12
w: ||||
 [GB]3 [GB] [FB]2 [FB]2 | [EG]3 [EG] [DG]2 [DG]2 | [CE]2 [CF]2 [B,E]2 [B,D]2 | [B,E]8 |] %16
w: ||||
V:2
 x8 | x8 | x8 | x8 | x8 | x8 | x8 | x8 | x8 | z2 F2 z4 | G2 z2 z2 .E2 | x8 | x8 | x8 | x8 | x8 |] %16
V:3
 B,3 B, A,2 G,2 | C2 C2 B,2 B,2 | A,2 B,2 B,2 B,2 | B,6 z2 | B,3 B, B,2 B,2 | G,2 B,A, G,2 A,2 | %6
 B,2 C2 B,2 B,A, | G,8 | G,3 G, G,2 G,2 | G,2 C2 =B,2 B,2 | C2 C2 A,2 C2 | D2 D2 E4 | E3 E E2 E2 | %13
 C3 C C2[K:bass] =B,2 | C2 A,2 G,2 F,2 | G,8 |] %16
V:4
 E,3 E, B,,2 C,2 | A,,2 A,,2 E,2 G,2 | z2 G,2 D,2 D,2 | B,,6 z2 | G,3 F, E,2 B,,2 | %5
 C,2 F,2 E,2 [F,,F,]2 | [G,,G,]2 A,,2 B,,2 B,,2 | E,8 | C,3 C, C,2 D,2 | E,2 F,2 G,2 G,2 | %10
 E,2 C,2 F,G, A,2 | G,2 G,2 C,4 | E,3 E, B,,2 B,,2 | C,3 C, A,,2 G,,2 | A,,2 G,,2 B,,2 B,,2 | %15
 E,8 |] %16

